Flat-Remix-Dark/apps/scalable/curlew.svg

<svg xmlns="http://www.w3.org/2000/svg" xmlns:xlink="http://www.w3.org/1999/xlink" width="384pt" height="384pt" version="1.1" viewBox="0 0 384 384">
 <defs>
  <filter id="alpha" width="100%" height="100%" x="0%" y="0%" filterUnits="objectBoundingBox">
   <feColorMatrix in="SourceGraphic" type="matrix" values="0 0 0 0 1 0 0 0 0 1 0 0 0 0 1 0 0 0 1 0"/>
  </filter>
  <mask id="mask1">
   <g filter="url(#alpha)">
    <rect width="384" height="384" x="0" y="0" style="fill:rgb(0%,0%,0%);fill-opacity:0.101961"/>
   </g>
  </mask>
  <clipPath id="clip2">
   <rect width="384" height="384" x="0" y="0"/>
  </clipPath>
  <g id="surface8" clip-path="url(#clip2)">
   <path style="fill:rgb(100.000%,100.000%,100.000%)" d="M 40.804688 24 C 31.496094 24 24 31.496094 24 40.804688 L 24 46.804688 C 24 37.496094 31.496094 30 40.804688 30 L 343.195312 30 C 352.503906 30 360 37.496094 360 46.804688 L 360 40.804688 C 360 31.496094 352.503906 24 343.195312 24 Z M 40.804688 24"/>
  </g>
 </defs>
 <g>
  <g>
   <path d="M 360 318 L 360 40.800781 C 360 31.492188 352.507812 24 343.199219 24 L 40.800781 24 C 31.492188 24 24 31.492188 24 40.800781 L 24 318 C 24 327.308594 31.492188 334.800781 40.800781 334.800781 L 343.199219 334.800781 C 352.507812 334.800781 360 327.308594 360 318 Z M 360 318" style="fill:rgb(29.019%,68.235%,90.196%)"/>
   <path d="M 253.03125 128.50195 C 251.08105 128.50525 248.57422 128.9668 244.11914 129.54688 C 228.9056 134.10937 224.84375 147.51628 224.84375 172.69336 C 224.84375 184.56836 223.5944 201.83333 222.06836 205.1875 C 220.45898 208.71875 212.91081 213.70247 206.32227 217.04102 C 153.68164 244.68685 116.92253 293.75 76.693359 334.60938 C 63.021485 343.625 63.005858 343.6556 69.740234 345.00977 L 76.5 346.375 L 70.125 348.16211 C 66.619792 349.14648 63.755859 350.82292 63.755859 351.89062 C 63.755859 354.40625 83.287109 351.28646 104.97461 342.28125 C 121.43815 335.44271 123.09896 327.55208 170.8125 322.9375 C 187.99479 321.27604 188.49479 321.88021 178.84375 332.64062 C 174.71354 337.25521 174.83268 337.89583 183.82227 358.75 C 192.9681 379.96354 195.97461 398.82357 190.72461 402.06836 C 186.88678 404.43797 188.03693 411.11202 195.34766 416.00195 C 164.59427 416.05342 110.37489 446.37196 79.578125 425.15039 C 66.114584 406.41081 52.46289 401.94792 32.041016 400 L 32 458.54102 C 32 470.4681 41.666016 480 53.587891 480 L 458.41211 480 C 470.33398 480 480 470.4681 480 458.54102 L 479.95898 320 C 470.61003 324.68229 455.77604 340.99544 451.45312 343.45898 C 439.34375 350.36003 426.48372 346.18294 419.38477 362.38086 C 416.75977 368.36524 419.20833 380.80143 413.375 381.79102 C 403.20313 383.52018 367.99935 382.39518 363.11914 385.75977 C 340.95247 398.39518 313.74414 405.65625 289.29102 412.625 C 284.61914 413.95833 277.14518 428.85937 272.33789 430.6875 C 257.75001 436.23143 239.91096 428.63733 222.79102 422.4668 C 223.2481 422.47566 223.74271 422.4981 224.16602 422.49414 C 234.85352 422.42643 235.4069 422.16211 231.25586 419.02148 C 228.7819 417.14648 224.28125 415.61914 221.25 415.61914 C 211.66667 415.61914 202.0944 406.05729 203.70898 399.625 C 204.50065 396.47396 203.98503 392.49544 202.56836 390.78711 C 200.94336 388.82878 200.07813 376.8444 200.23438 358.38086 C 200.44271 333.18294 201.10351 328.28581 204.94727 323.40039 C 207.4056 320.27539 210.77539 315.09831 212.43164 311.90039 C 214.0931 308.70247 229.91211 301.44727 237.61523 295.77539 C 245.32357 290.10352 254.33268 281.90625 257.65039 277.5625 C 271.43685 259.48437 275.54622 233.02018 269.71289 199.86914 C 265.4056 175.43164 258.19792 170.18294 270.35938 164.41211 C 285.22396 157.36003 327.375 164.43294 347.42188 174.80273 C 351.125 176.71419 353.44271 177.12956 352.57812 175.72852 C 347.76042 167.93685 319.09375 156.20768 288.375 152.40039 C 280.66667 151.44206 271.65169 138.26042 264.59961 133.875 C 257.98828 129.76367 256.28158 128.49646 253.03125 128.50195 z M 193.42969 324.5293 C 194.88995 324.68956 195.34473 328.06445 194.27539 334.28711 C 193.34831 339.70378 192.6875 347.52539 192.8125 351.66602 C 193.07292 360.38997 191.90625 361.10938 188.32812 354.42188 C 184.76042 347.75521 184.81315 336.94857 188.44336 330.16211 C 190.55111 326.22461 192.29392 324.40465 193.42969 324.5293 z" transform="scale(0.75)" style="fill:#272a34"/>
  </g>
  <use mask="url(#mask1)" xlink:href="#surface8"/>
 </g>
 <path style="fill:#090e1e" d="M 253.03125 128.50195 C 251.08105 128.50462 248.57422 128.96681 244.11914 129.54688 C 228.90562 134.10938 224.84375 147.51629 224.84375 172.69336 C 224.84375 184.56836 223.59245 201.83334 222.06641 205.1875 C 220.45705 208.71875 212.91081 213.70442 206.32227 217.04297 C 153.68165 244.68877 116.92057 293.75002 76.691406 334.60938 C 63.019526 343.62499 63.003908 343.65756 69.738281 345.01172 L 74.603516 345.99219 C 75.305914 345.52773 75.898488 345.13225 76.691406 344.60938 C 116.92057 303.75002 153.68165 254.68877 206.32227 227.04297 C 212.91081 223.70442 220.45705 218.71875 222.06641 215.1875 C 223.59245 211.83334 224.84375 194.56836 224.84375 182.69336 C 224.84375 157.51628 228.90562 144.10938 244.11914 139.54688 C 248.57423 138.96681 251.08105 138.50462 253.03125 138.50195 C 256.28157 138.49646 257.98632 139.76367 264.59766 143.875 C 270.83629 147.75456 278.61243 158.51404 285.66016 161.60938 C 304.73309 161.06389 332.33543 166.99883 347.42188 174.80273 C 351.12499 176.7142 353.44271 177.13152 352.57812 175.73047 C 347.76044 167.9388 319.09376 156.20965 288.375 152.40234 C 280.66668 151.44402 271.64974 138.26041 264.59766 133.875 C 257.98631 129.76367 256.28157 128.49646 253.03125 128.50195 z M 264.65039 178.75195 C 261.49853 183.81072 266.43932 191.29846 269.71289 209.87109 C 271.09721 217.73827 271.91561 225.22333 272.18359 232.31445 C 272.58267 222.37645 271.7663 211.54072 269.71289 199.87109 C 268.0168 190.24827 265.88622 183.62792 264.65039 178.75195 z M 479.95703 320 C 470.60807 324.68229 455.77605 340.99544 451.45312 343.45898 C 439.34375 350.36002 426.48373 346.18294 419.38477 362.38086 C 416.75977 368.36522 419.20832 380.80337 413.375 381.79297 C 403.20312 383.52213 367.99934 382.39715 363.11914 385.76172 C 340.95247 398.39715 313.74414 405.65624 289.29102 412.625 C 284.61914 413.95832 277.14517 428.85939 272.33789 430.6875 C 257.75098 436.23106 239.9138 428.6371 222.79492 422.4668 C 223.25063 422.47613 223.7439 422.49996 224.16602 422.49609 C 234.8535 422.42836 235.40493 422.16212 231.25391 419.02148 C 228.77993 417.14648 224.28125 415.62109 221.25 415.62109 C 211.66665 415.62109 202.09243 406.05728 203.70703 399.625 C 204.49871 396.47393 203.98307 392.49543 202.56641 390.78711 C 201.21437 389.15773 200.39892 380.5127 200.25 367.04492 C 200.24556 367.52242 200.23845 367.88797 200.23438 368.38086 C 200.07812 386.84438 200.94141 398.82879 202.56641 400.78711 C 203.98307 402.49544 204.49871 406.47393 203.70703 409.625 C 202.09243 416.05728 211.66665 425.62109 221.25 425.62109 C 224.28125 425.62109 228.77993 427.14648 231.25391 429.02148 C 235.40493 432.16211 234.8535 432.42836 224.16602 432.49609 C 223.7439 432.49996 223.25063 432.47613 222.79492 432.4668 C 239.9138 438.6371 257.75098 446.23106 272.33789 440.6875 C 277.14517 438.85939 284.61914 423.95832 289.29102 422.625 C 313.74414 415.65624 340.95247 408.39713 363.11914 395.76172 C 367.99935 392.39713 403.20312 393.52213 413.375 391.79297 C 419.20833 390.80338 416.75977 378.36522 419.38477 372.38086 C 426.48373 356.18293 439.34375 360.36002 451.45312 353.45898 C 455.77605 350.99544 470.60807 334.68229 479.95703 330 L 479.99609 458.66797 C 479.99633 458.6261 480 458.5849 480 458.54297 L 479.95703 320 z M 180.67383 332.24023 C 180.21562 332.24199 179.69107 332.25965 179.1582 332.28125 C 179.04018 332.41324 178.96499 332.50545 178.84375 332.64062 C 176.06121 335.74953 175.22105 337.0789 177.70898 343.97656 C 178.04183 343.55468 178.41342 343.12143 178.84375 342.64062 C 186.08203 334.57032 187.61083 332.21363 180.67383 332.24023 z M 194.16602 334.99023 C 193.29902 340.36398 192.69271 347.69793 192.8125 351.66797 C 193.07293 360.39193 191.90625 361.10938 188.32812 354.42188 C 187.24823 352.404 186.50583 350.0033 186.08789 347.45312 C 185.13275 353.29838 185.87529 359.83855 188.32812 364.42188 C 191.90624 371.10938 193.07293 370.39193 192.8125 361.66797 C 192.68757 357.52733 193.34831 349.70378 194.27539 344.28711 C 195.13604 339.27881 195.00955 336.1178 194.16602 334.99023 z M 72.208984 347.57812 L 70.125 348.16211 C 66.619773 349.14647 63.753906 350.82292 63.753906 351.89062 C 63.753906 352.34156 64.403554 352.60406 65.558594 352.69141 C 66.206199 351.71216 68.300593 350.19109 72.208984 347.57812 z M 192.85547 398.51562 C 192.4426 400.21941 191.73954 401.43987 190.72266 402.06836 C 187.88032 403.8233 187.78284 407.93975 190.88867 411.94336 C 193.21138 410.29769 193.7885 405.38459 192.85547 398.51562 z M 32.041016 400 L 32 458.54297 C 32 458.63598 32.004687 458.7276 32.005859 458.82031 L 32.041016 410 C 52.462886 411.94791 66.114645 416.41276 79.578125 435.15234 C 110.37489 456.3739 164.5923 426.05342 195.3457 426.00195 C 190.88117 423.01576 188.72451 419.36778 188.58789 416.4375 C 157.14732 420.03736 108.23106 444.89663 79.578125 425.15234 C 66.114645 406.41274 52.462896 401.94791 32.041016 400 z" transform="scale(0.75)"/>
 <path style="fill:#ffffff;opacity:0.3" d="M 54.400391 32 C 41.98894 32 32 41.988951 32 54.400391 L 32 64.400391 C 32 51.988937 41.988937 42 54.400391 42 L 457.59961 42 C 470.01105 42 480 51.988937 480 64.400391 L 480 54.400391 C 480 41.988951 470.01105 32 457.59961 32 L 54.400391 32 z M 479.99219 434.2832 C 479.99101 434.32154 479.99101 434.35996 479.99023 434.39844 L 479.99805 458.65625 C 479.99825 458.61766 480 458.57966 480 458.54102 L 479.99219 434.2832 z M 32.017578 434.66016 L 32 458.54102 C 32 458.63337 32.004704 458.72434 32.005859 458.81641 L 32.023438 434.92969 C 32.019727 434.8402 32.020722 434.74978 32.017578 434.66016 z" transform="scale(0.75)"/>
 <path d="M 32 414 L 32 424 C 32 424.22144 32.009876 424.44063 32.017578 424.66016 L 32.023438 414.92969 C 32.010638 414.62101 32 414.31185 32 414 z M 480 414 C 480 414.13365 479.98633 414.26537 479.98633 414.39844 L 479.99023 424.39453 C 479.99295 424.26279 480 424.13233 480 424 L 480 414 z M 479.99805 448.65625 C 479.9357 460.52913 470.29535 470 458.41211 470 L 53.587891 470 C 41.758324 470 32.153951 460.61389 32.005859 448.81641 L 32 458.54102 C 32 470.46807 41.666011 480 53.587891 480 L 458.41211 480 C 470.334 480 480 470.46807 480 458.54102 L 479.99805 448.65625 z" transform="scale(0.75)"/>
</svg>

<svg width="512" height="512" version="1.1" viewBox="0 0 384 384" xmlns="http://www.w3.org/2000/svg"><defs><clipPath><rect width="384" height="384"/></clipPath></defs><path d="m24.031 307.5-0.0308 43.906c0 8.9453 7.2495 16.094 16.191 16.094h303.62c8.9414 0 16.191-7.1489 16.191-16.094l-0.0308-103.91z" fill="#040405" opacity=".3" stroke-width=".75"/><path d="m360 318v-277.2c0-9.3086-7.4922-16.801-16.801-16.801h-302.4c-9.3086 0-16.801 7.4922-16.801 16.801v277.2c0 9.3086 7.4922 16.801 16.801 16.801h302.4c9.3086 0 16.801-7.4922 16.801-16.801z" fill="#49ade5"/><path transform="scale(.75)" d="m253.03 128.5c-1.9502 0.0033-4.457 0.46485-8.9121 1.0449-15.214 4.5625-19.275 17.969-19.275 43.146 0 11.875-1.2494 29.14-2.7754 32.494-1.6094 3.5312-9.1576 8.515-15.746 11.854-52.641 27.646-89.4 76.709-129.63 117.57-13.672 9.0156-13.688 9.0462-6.9531 10.4l6.7598 1.3652-6.375 1.7871c-3.5052 0.98437-6.3691 2.6608-6.3691 3.7285 0 2.5156 19.531-0.60416 41.219-9.6094 16.464-6.8385 18.124-14.729 65.838-19.344 17.182-1.6615 17.682-1.0573 8.0312 9.7031-4.1302 4.6146-4.0111 5.2552 4.9785 26.109 9.1458 21.214 12.152 40.074 6.9023 43.318-3.8378 2.3696-2.6877 9.0437 4.623 13.934-30.753 0.05147-84.973 30.37-115.77 9.1484-13.464-18.74-27.115-23.202-47.537-25.15l-0.041016 58.541c0 11.927 9.666 21.459 21.588 21.459h404.82c11.922 0 21.588-9.5319 21.588-21.459l-0.04102-138.54c-9.349 4.6823-24.183 20.995-28.506 23.459-12.109 6.901-24.969 2.724-32.068 18.922-2.625 5.9844-0.17644 18.421-6.0098 19.41-10.172 1.7292-45.376 0.60416-50.256 3.9688-22.167 12.635-49.375 19.896-73.828 26.865-4.6719 1.3333-12.146 16.234-16.953 18.062-14.588 5.5439-32.427-2.0502-49.547-8.2207 0.45708 0.00886 0.95169 0.0313 1.375 0.02734 10.688-0.06771 11.241-0.33203 7.0898-3.4727-2.474-1.875-6.9746-3.4023-10.006-3.4023-9.5833 0-19.156-9.5618-17.541-15.994 0.79167-3.151 0.27605-7.1296-1.1406-8.8379-1.625-1.9583-2.4902-13.943-2.334-32.406 0.20833-25.198 0.86913-30.095 4.7129-34.98 2.4583-3.125 5.8281-8.3021 7.4844-11.5 1.6615-3.1979 17.48-10.453 25.184-16.125 7.7083-5.6719 16.717-13.869 20.035-18.213 13.786-18.078 17.896-44.542 12.062-77.693-4.3073-24.438-11.515-29.686 0.64649-35.457 14.865-7.0521 57.016 0.02083 77.062 10.391 3.7031 1.9115 6.0208 2.3268 5.1562 0.92579-4.8177-7.7917-33.484-19.521-64.203-23.328-7.7083-0.95833-16.723-14.14-23.775-18.525-6.6113-4.1113-8.318-5.3785-11.568-5.373zm-59.602 196.03c1.4603 0.16026 1.915 3.5352 0.8457 9.7578-0.92708 5.4167-1.5879 13.238-1.4629 17.379 0.26042 8.724-0.90625 9.4434-4.4844 2.7559-3.5677-6.6667-3.515-17.473 0.11524-24.26 2.1078-3.9375 3.8506-5.7575 4.9863-5.6328z" fill="#272a34"/><path transform="scale(.75)" d="m253.03 128.5c-1.9502 0.00267-4.457 0.46484-8.9121 1.0449-15.214 4.5625-19.275 17.969-19.275 43.146 0 11.875-1.2494 29.14-2.7754 32.494-1.6094 3.5312-9.1576 8.515-15.746 11.854-52.641 27.646-89.4 76.709-129.63 117.57-13.672 9.0156-13.688 9.0462-6.9531 10.4l4.8652 0.98242c0.7024-0.46444 1.295-0.85994 2.0879-1.3828 40.229-40.859 76.988-89.923 129.63-117.57 6.5885-3.3386 14.137-8.3223 15.746-11.854 1.526-3.3542 2.7754-20.619 2.7754-32.494 0-25.177 4.0619-38.584 19.275-43.146 4.4551-0.58008 6.9619-1.0423 8.9121-1.0449 3.2503-0.00549 4.957 1.2617 11.568 5.373 6.2398 3.8803 14.016 14.642 21.064 17.734 19.073-0.54456 46.672 5.39 61.758 13.193 3.7031 1.9115 6.0208 2.3268 5.1562 0.92579-4.8176-7.7917-33.484-19.521-64.203-23.328-7.7083-0.95832-16.723-14.14-23.775-18.525-6.6113-4.1113-8.318-5.3785-11.568-5.373zm11.619 50.25c-3.1519 5.0582 1.7889 12.545 5.0625 31.117 1.3844 7.8679 2.2028 15.353 2.4707 22.445 0.39908-9.9383-0.41729-20.776-2.4707-32.445-1.696-9.6224-3.8266-16.242-5.0625-21.117zm215.31 141.25c-9.3489 4.6823-24.183 20.995-28.506 23.459-12.109 6.901-24.969 2.724-32.068 18.922-2.625 5.9844-0.17645 18.421-6.0098 19.41-10.172 1.7292-45.376 0.60416-50.256 3.9688-22.167 12.635-49.375 19.896-73.828 26.865-4.6719 1.3333-12.146 16.234-16.953 18.062-14.588 5.5439-32.427-2.0502-49.547-8.2207 0.45708 0.00933 0.95169 0.03134 1.375 0.02734 10.687-0.06773 11.241-0.33202 7.0898-3.4727-2.474-1.875-6.9746-3.4023-10.006-3.4023-9.5833 0-19.156-9.5618-17.541-15.994 0.79167-3.151 0.27606-7.1296-1.1406-8.8379-1.352-1.6294-2.169-10.274-2.3184-23.742-0.00444 0.4775-0.01155 0.84305-0.01562 1.3359-0.15626 18.464 0.70898 30.448 2.334 32.406 1.4167 1.7083 1.9323 5.6868 1.1406 8.8379-1.6146 6.4323 7.9577 15.994 17.541 15.994 3.0312 0 7.5319 1.5273 10.006 3.4023 4.151 3.1406 3.5976 3.4049-7.0898 3.4727-0.42331 4e-3 -0.91792-0.01801-1.375-0.02734 17.12 6.1705 34.959 13.765 49.547 8.2207 4.8073-1.8281 12.281-16.729 16.953-18.062 24.453-6.9688 51.661-14.23 73.828-26.865 4.8802-3.3646 40.084-2.2396 50.256-3.9688 5.8333-0.9896 3.3848-13.426 6.0098-19.41 7.0989-16.198 19.959-12.021 32.068-18.922 4.3229-2.4635 19.157-18.777 28.506-23.459l0.03907 128.66c2.1e-4 -0.0399 0.00195-0.07919 0.00195-0.11914l-0.04102-138.54zm-299.29 12.24c-0.45821 0.00176-0.98276 0.01942-1.5156 0.04102-0.11802 0.13199-0.19321 0.2242-0.31445 0.35937-2.7826 3.1089-3.6227 4.4383-1.1348 11.336 0.33285-0.42188 0.70443-0.85513 1.1348-1.3359 7.2383-8.0703 8.7671-10.427 1.8301-10.4zm13.49 2.752c-0.86681 5.3734-1.4714 12.704-1.3516 16.674 0.26041 8.7239-0.90624 9.4434-4.4844 2.7559-1.0792-2.0167-1.8204-4.4144-2.2383-6.9629-0.95426 5.8438-0.21371 12.381 2.2383 16.963 3.5781 6.6875 4.7448 5.9681 4.4844-2.7559-0.125-4.1406 0.53581-11.962 1.4629-17.379 0.86083-5.0093 0.73265-8.1679-0.11133-9.2949zm-121.95 12.584-2.0879 0.58594c-3.5052 0.98437-6.3691 2.6608-6.3691 3.7285 0 0.45093 0.64967 0.71344 1.8047 0.80079 0.64769-0.97904 2.7427-2.5016 6.6523-5.1152zm120.64 50.941c-0.41282 1.7028-1.1163 2.9225-2.1328 3.5508-2.8423 1.755-2.9398 5.8714 0.16601 9.875 2.3226-1.6456 2.9001-6.5574 1.9668-13.426zm-160.82 1.4824-0.041016 58.541c0 0.093 0.004687 0.18463 0.005859 0.27734l0.035157-48.818c20.422 1.9479 34.074 6.4108 47.537 25.15 30.797 21.222 85.016-9.097 115.77-9.1484-4.4645-2.9862-6.6192-6.6342-6.7559-9.5644-31.441 3.599-80.36 28.457-109.01 8.7129-13.464-18.74-27.115-23.202-47.537-25.15z" opacity=".3"/><path transform="scale(.75)" d="m54.4 32c-12.411 0-22.4 9.9889-22.4 22.4v10c0-12.411 9.9889-22.4 22.4-22.4h403.2c12.411 0 22.4 9.9889 22.4 22.4v-10c0-12.411-9.9889-22.4-22.4-22.4h-403.2z" fill="#cde9f8" opacity=".3" stroke-width="1.3333"/></svg>
